images/icons/editor-text-italic.svg

<svg width="16" height="16" viewBox="0 0 16 16" xmlns="http://www.w3.org/2000/svg"
  aria-hidden="true" focusable="false">
  <g fill-rule="evenodd">
    <rect fill="none" x="0" y="0" width="16" height="16"></rect>
    <path
      d="M10.6094 16C10.7298 16 10.8397 15.9535 10.9389 15.8605C11.0381 15.7675 11.1019 15.6616 11.1302 15.5425V15.5425L11.5872 13.3668C11.6156 13.2478 11.5943 13.1437 11.5235 13.0544C11.4526 12.9651 11.3605 12.9205 11.2471 12.9205V12.9205H8.845C8.70328 12.9131 8.64659 12.835 8.67493 12.6862V12.6862L10.5669 3.31381C10.6023 3.16504 10.6909 3.09066 10.8326 3.09066V3.09066H13.0009C13.1213 3.09066 13.2329 3.04417 13.3357 2.95119C13.4384 2.85821 13.504 2.75221 13.5323 2.63319V2.63319L13.9894 0.457462C13.9965 0.42027 14 0.386797 14 0.357043C14 0.275221 13.9717 0.200837 13.915 0.133891C13.8441 0.0446304 13.752 0 13.6386 0V0H5.80514C5.68468 0 5.57307 0.04649 5.47033 0.13947C5.36758 0.23245 5.30204 0.338447 5.27369 0.457462V0.457462L4.81665 2.63319C4.78831 2.75221 4.81134 2.85821 4.88574 2.95119C4.96014 3.04417 5.05403 3.09066 5.1674 3.09066V3.09066H7.34632C7.48804 3.09066 7.54473 3.16504 7.51639 3.31381V3.31381L5.62445 12.6862C5.5961 12.8424 5.51107 12.9205 5.36935 12.9205V12.9205H2.96723C2.85385 12.9205 2.74579 12.9651 2.64305 13.0544C2.5403 13.1437 2.47476 13.2478 2.44641 13.3668V13.3668L2.01063 15.5425C2.00354 15.5797 2 15.6132 2 15.643C2 15.7248 2.0248 15.7992 2.0744 15.8661C2.14526 15.9554 2.23384 16 2.34012 16V16H10.6094Z"
      fill="currentColor" />
  </g>
</svg>

<svg xmlns="http://www.w3.org/2000/svg" width="16" height="16" viewBox="0 0 16 16" aria-hidden="true" focusable="false"><g fill-rule="evenodd"><rect fill="none" stroke="none" x="0" y="0" width="16" height="16"></rect><path fill="currentColor" stroke="none" d="M10.61 16c.12 0 .23-.046.329-.14a.633.633 0 00.191-.317l.457-2.176a.348.348 0 00-.064-.313.336.336 0 00-.276-.133H8.845c-.142-.008-.198-.086-.17-.235l1.892-9.372c.035-.149.124-.223.266-.223H13a.49.49 0 00.335-.14.62.62 0 00.196-.318L13.99.457a.542.542 0 00.011-.1.337.337 0 00-.085-.223.336.336 0 00-.276-.134H5.805a.49.49 0 00-.335.14.62.62 0 00-.196.317l-.457 2.176a.353.353 0 00.069.318c.074.093.168.14.281.14h2.18c.141 0 .198.074.17.223l-1.893 9.372c-.028.156-.113.235-.255.235H2.967a.489.489 0 00-.324.133.59.59 0 00-.197.313l-.435 2.176a.542.542 0 00-.011.1c0 .082.025.156.074.223.071.09.16.134.266.134h8.27z"></path></g></svg>
